; generated by PrusaSlicer 2.6.0-alpha4+win64 on 2023-09-02 at 16:43:17 UTC

; 

; external perimeters extrusion width = 0.45mm
; perimeters extrusion width = 0.45mm
; infill extrusion width = 0.45mm
; solid infill extrusion width = 0.45mm
; top infill extrusion width = 0.40mm
; support material extrusion width = 0.35mm
; first layer extrusion width = 0.42mm

; external perimeters extrusion width = 0.45mm
; perimeters extrusion width = 0.45mm
; infill extrusion width = 0.45mm
; solid infill extrusion width = 0.45mm
; top infill extrusion width = 0.40mm
; support material extrusion width = 0.35mm
; first layer extrusion width = 0.42mm

M73 P0 R76
M73 Q0 S76
M201 X1000 Y1000 Z200 E5000 ; sets maximum accelerations, mm/sec^2
M203 X200 Y200 Z12 E120 ; sets maximum feedrates, mm / sec
M204 P1250 R1250 T1250 ; sets acceleration (P, T) and retract acceleration (R), mm/sec^2
M205 X8.00 Y8.00 Z0.40 E4.50 ; sets the jerk limits, mm/sec
M205 S0 T0 ; sets the minimum extruding and travel feed rate, mm/sec
M107
;TYPE:Custom
M862.3 P "MK3S" ; printer model check
M862.1 P0.4 ; nozzle diameter check
M115 U3.10.1 ; tell printer latest fw version
G90 ; use absolute coordinates
M83 ; extruder relative mode
M104 S215 ; set extruder temp
M140 S60 ; set bed temp
M190 S60 ; wait for bed temp
M109 S215 ; wait for extruder temp
G28 W ; home all without mesh bed level
G80 ; mesh bed leveling
G1 Z0.2 F720
G1 Y-3 F1000 ; go outside print area
G92 E0
G1 X60 E9 F1000 ; intro line
G1 X100 E12.5 F1000 ; intro line
G92 E0
M221 S95

; Don't change E values below. Excessive value can damage the printer.
M907 E430 ; set extruder motor current
G21 ; set units to millimeters
G90 ; use absolute coordinates
M83 ; use relative distances for extrusion
M900 K0.05 ; Filament gcode LA 1.5
M900 K30 ; Filament gcode LA 1.0
M107
;LAYER_CHANGE
;Z:0.2
;HEIGHT:0.2
;BEFORE_LAYER_CHANGE
G92 E0.0
;0.2


G1 E-.8 F2100
G1 Z.4 F720
;AFTER_LAYER_CHANGE
;0.2
G1 X100.506 Y87.965 F10800
G1 Z.2 F720
G1 E.8 F2100
M204 S800
;TYPE:Skirt/Brim
;WIDTH:0.42
G1 F1200
G1 X100.915 Y87.556 E.01814
G1 X101.499 Y87.141 E.02246
G1 X102.493 Y86.735 E.03367
G1 X103.45 Y86.614 E.03024
G1 X146.55 Y86.614 E1.35137
G1 X147.371 Y86.703 E.02589
G1 X148.055 Y86.919 E.02249
G1 X148.688 Y87.256 E.02248
G1 X149.247 Y87.704 E.02246
G1 X149.715 Y88.247 E.02248
G1 X150.075 Y88.867 E.02248
G1 X150.315 Y89.543 E.02249
G1 X150.427 Y90.251 E.02247
G1 X150.427 Y119.749 E.92489
G1 X150.211 Y120.8 E.03364
G1 X149.794 Y121.638 E.02935
G1 X149.247 Y122.296 E.02683
G1 X148.501 Y122.859 E.0293
G1 X147.507 Y123.265 E.03367
G1 X146.55 Y123.386 E.03024
G1 X102.982 Y123.357 E1.36604
G1 X101.945 Y123.081 E.03365
G1 X100.915 Y122.444 E.03797
G1 X95.496 Y116.541 E.25125
G1 X94.876 Y114.94 E.05383
G1 X94.876 Y102.046 E.40428
G1 X95.043 Y101.17 E.02796
G1 X99.925 Y88.867 E.41501
G1 X100.474 Y88.015 E.03178
M204 S1000
; printing object Top.stl id:0 copy 0
;WIPE_START
G1 F8640
G1 X100.915 Y87.556 E-.14698
G1 X101.499 Y87.141 E-.16543
G1 X102.493 Y86.735 E-.24792
G1 X103.45 Y86.614 E-.22273
G1 X103.523 Y86.614 E-.01694
;WIPE_END
G1 Z.6 F720
G1 X135.507 Y90.864 F10800
G1 Z.2 F720
G1 E.8 F2100
M204 S800
;TYPE:Support material interface
;WIDTH:0.35
G1 F1200
G1 X135.507 Y92.486 E.04142
G1 X135.792 Y92.486 E.00728
G1 X135.792 Y90.864 E.04142
G1 X135.672 Y90.864 E.00306
M204 S1000
;WIPE_START
G1 F8640
G1 X135.792 Y90.864 E-.02771
G1 X135.792 Y92.486 E-.37452
G1 X135.507 Y92.486 E-.06581
G1 X135.507 Y91.048 E-.33196
;WIPE_END
G1 Z.6 F720
G1 X136.929 Y93.326 F10800
G1 Z.2 F720
G1 E.8 F2100
M204 S800
G1 F1200
G1 X136.634 Y93.326 E.00753
G1 X136.634 Y93.703 E.00963
G1 X137.093 Y93.703 E.01172
G1 X137.093 Y93.326 E.00963
G1 X137.621 Y93.326 E.01348
G1 X137.621 Y93.672 E.00883
G1 X138.15 Y93.672 E.01351
G1 X138.15 Y93.326 E.00883
M204 S1000
;WIPE_START
G1 F8640
G1 X138.15 Y93.672 E-.07989
G1 X137.621 Y93.672 E-.12215
G1 X137.621 Y93.326 E-.07989
G1 X137.093 Y93.326 E-.12192
G1 X137.093 Y93.703 E-.08705
G1 X136.634 Y93.703 E-.10598
G1 X136.634 Y93.326 E-.08705
G1 X136.929 Y93.326 E-.06812
;WIPE_END
G1 E-.04795 F2100
G1 Z.6 F720
G1 X137.986 Y94.572 F10800
G1 Z.2 F720
G1 E.8 F2100
M204 S800
G1 F1200
G1 X137.879 Y94.572 E.00273
G1 X137.879 Y94.918 E.00883
G1 X138.15 Y94.918 E.00692
G1 X138.15 Y94.572 E.00883
G1 X138.679 Y94.572 E.01351
G1 X138.679 Y94.918 E.00883
G1 X139.207 Y94.918 E.01348
G1 X139.207 Y94.541 E.00963
G1 X139.501 Y94.541 E.00751
G1 X139.501 Y94.918 E.00963
G1 X139.371 Y94.918 E.00332
M204 S1000
;WIPE_START
G1 F8640
G1 X139.501 Y94.918 E-.03002
G1 X139.501 Y94.541 E-.08705
G1 X139.207 Y94.541 E-.06789
G1 X139.207 Y94.918 E-.08705
G1 X138.679 Y94.918 E-.12192
G1 X138.679 Y94.572 E-.07989
G1 X138.15 Y94.572 E-.12215
G1 X138.15 Y94.918 E-.07989
G1 X137.879 Y94.918 E-.06257
G1 X137.879 Y94.651 E-.06157
;WIPE_END
G1 Z.6 F720
G1 X140.354 Y95.786 F10800
G1 Z.2 F720
G1 E.8 F2100
M204 S800
G1 F1200
G1 X140.732 Y95.786 E.00965
G1 X140.732 Y97.408 E.04142
G1 X140.354 Y97.408 E.00965
G1 X140.354 Y95.835 E.04016
M204 S1000
;WIPE_START
G1 F8640
G1 X140.354 Y97.408 E-.36321
G1 X140.732 Y97.408 E-.08728
G1 X140.732 Y95.894 E-.34951
;WIPE_END
G1 Z.6 F720
G1 X140.354 Y100.657 F10800
G1 Z.2 F720
G1 E.8 F2100
M204 S800
G1 F1200
G1 X140.354 Y100.985 E.00838
G1 X140.732 Y100.985 E.00965
G1 X140.732 Y100.608 E.00963
G1 X140.354 Y100.608 E.00965
M204 S1000
;WIPE_START
G1 F8640
G1 X140.732 Y100.608 E-.08728
G1 X140.732 Y100.985 E-.08705
G1 X140.354 Y100.985 E-.08728
G1 X140.354 Y100.657 E-.07574
;WIPE_END
G1 E-.46265 F2100
G1 Z.6 F720
G1 X139.371 Y99.739 F10800
G1 Z.2 F720
G1 E.8 F2100
M204 S800
G1 F1200
G1 X139.497 Y99.739 E.00322
G1 X139.497 Y99.362 E.00963
G1 X139.207 Y99.362 E.0074
G1 X139.207 Y99.739 E.00963
G1 X138.679 Y99.739 E.01348
G1 X138.679 Y99.362 E.00963
G1 X138.15 Y99.362 E.01351
G1 X138.15 Y99.739 E.00963
G1 X137.621 Y99.739 E.01351
G1 X137.621 Y99.362 E.00963
G1 X137.093 Y99.362 E.01348
G1 X137.093 Y99.739 E.00963
G1 X136.629 Y99.739 E.01185
G1 X136.629 Y99.362 E.00963
G1 X136.929 Y99.362 E.00766
M204 S1000
;WIPE_START
G1 F8640
G1 X136.629 Y99.362 E-.06927
G1 X136.629 Y99.739 E-.08705
G1 X137.093 Y99.739 E-.10714
G1 X137.093 Y99.362 E-.08705
G1 X137.621 Y99.362 E-.12192
G1 X137.621 Y99.739 E-.08705
G1 X138.15 Y99.739 E-.12215
G1 X138.15 Y99.362 E-.08705
G1 X138.286 Y99.362 E-.03132
;WIPE_END
G1 Z.6 F720
G1 X135.507 Y100.608 F10800
G1 Z.2 F720
G1 E.8 F2100
M204 S800
G1 F1200
G1 X135.507 Y100.985 E.00963
G1 X135.792 Y100.985 E.00728
G1 X135.792 Y100.608 E.00963
G1 X135.672 Y100.608 E.00306
M204 S1000
;WIPE_START
G1 F8640
G1 X135.792 Y100.608 E-.02771
G1 X135.792 Y100.985 E-.08705
G1 X135.507 Y100.985 E-.06581
G1 X135.507 Y100.608 E-.08705
;WIPE_END
G1 E-.53238 F2100
G1 Z.6 F720
G1 X136.692 Y101.853 F10800
G1 Z.2 F720
G1 E.8 F2100
M204 S800
G1 F1200
G1 X137.069 Y101.853 E.00963
G1 X137.069 Y102.23 E.00963
G1 X136.692 Y102.23 E.00963
G1 X136.692 Y101.902 E.00838
M204 S1000
;WIPE_START
G1 F8640
G1 X136.692 Y102.23 E-.07574
G1 X137.069 Y102.23 E-.08705
G1 X137.069 Y101.853 E-.08705
G1 X136.692 Y101.853 E-.08705
;WIPE_END
G1 E-.46311 F2100
G1 Z.6 F720
G1 X135.672 Y102.973 F10800
G1 Z.2 F720
G1 E.8 F2100
M204 S800
G1 F1200
G1 X135.793 Y102.973 E.00309
G1 X135.793 Y103.35 E.00963
G1 X135.507 Y103.35 E.0073
G1 X135.507 Y102.973 E.00963
M204 S1000
;WIPE_START
G1 F8640
G1 X135.507 Y103.35 E-.08705
G1 X135.793 Y103.35 E-.06604
G1 X135.793 Y102.973 E-.08705
G1 X135.672 Y102.973 E-.02794
;WIPE_END
G1 E-.53192 F2100
G1 Z.6 F720
G1 X136.929 Y104.219 F10800
G1 Z.2 F720
G1 E.8 F2100
M204 S800
G1 F1200
G1 X136.629 Y104.219 E.00766
G1 X136.629 Y104.596 E.00963
G1 X137.093 Y104.596 E.01185
G1 X137.093 Y104.219 E.00963
G1 X137.621 Y104.219 E.01348
G1 X137.621 Y104.596 E.00963
G1 X138.15 Y104.596 E.01351
G1 X138.15 Y104.219 E.00963
G1 X138.679 Y104.219 E.01351
G1 X138.679 Y104.596 E.00963
G1 X139.207 Y104.596 E.01348
G1 X139.207 Y104.219 E.00963
G1 X139.497 Y104.219 E.0074
G1 X139.497 Y104.596 E.00963
G1 X139.371 Y104.596 E.00322
M204 S1000
;WIPE_START
G1 F8640
G1 X139.497 Y104.596 E-.02909
G1 X139.497 Y104.219 E-.08705
G1 X139.207 Y104.219 E-.06696
G1 X139.207 Y104.596 E-.08705
G1 X138.679 Y104.596 E-.12192
G1 X138.679 Y104.219 E-.08705
G1 X138.15 Y104.219 E-.12215
G1 X138.15 Y104.596 E-.08705
G1 X137.666 Y104.596 E-.11168
;WIPE_END
G1 Z.6 F720
G1 X140.354 Y103.023 F10800
G1 Z.2 F720
G1 E.8 F2100
M204 S800
G1 F1200
G1 X140.354 Y103.35 E.00835
G1 X140.732 Y103.35 E.00965
G1 X140.732 Y102.973 E.00963
G1 X140.354 Y102.973 E.00965
M204 S1000
;WIPE_START
G1 F8640
G1 X140.732 Y102.973 E-.08728
G1 X140.732 Y103.35 E-.08705
G1 X140.354 Y103.35 E-.08728
G1 X140.354 Y103.023 E-.07551
;WIPE_END
G1 E-.46288 F2100
G1 Z.6 F720
G1 X140.354 Y107.923 F10800
G1 Z.2 F720
G1 E.8 F2100
M204 S800
G1 F1200
G1 X140.354 Y108.251 E.00838
G1 X140.732 Y108.251 E.00965
G1 X140.732 Y107.873 E.00965
G1 X140.354 Y107.873 E.00965
M204 S1000
;WIPE_START
G1 F8640
G1 X140.732 Y107.873 E-.08728
G1 X140.732 Y108.251 E-.08728
G1 X140.354 Y108.251 E-.08728
G1 X140.354 Y107.923 E-.07574
;WIPE_END
G1 E-.46242 F2100
G1 Z.6 F720
G1 X139.371 Y107.005 F10800
G1 Z.2 F720
G1 E.8 F2100
M204 S800
G1 F1200
G1 X139.497 Y107.005 E.00322
G1 X139.497 Y106.628 E.00963
G1 X139.207 Y106.628 E.0074
G1 X139.207 Y107.005 E.00963
G1 X138.679 Y107.005 E.01348
G1 X138.679 Y106.628 E.00963
G1 X138.15 Y106.628 E.01351
G1 X138.15 Y107.005 E.00963
G1 X137.621 Y107.005 E.01351
G1 X137.621 Y106.628 E.00963
G1 X137.093 Y106.628 E.01348
G1 X137.093 Y107.005 E.00963
G1 X136.629 Y107.005 E.01185
G1 X136.629 Y106.628 E.00963
G1 X136.929 Y106.628 E.00766
M204 S1000
;WIPE_START
G1 F8640
G1 X136.629 Y106.628 E-.06927
G1 X136.629 Y107.005 E-.08705
G1 X137.093 Y107.005 E-.10714
G1 X137.093 Y106.628 E-.08705
G1 X137.621 Y106.628 E-.12192
G1 X137.621 Y107.005 E-.08705
G1 X138.15 Y107.005 E-.12215
G1 X138.15 Y106.628 E-.08705
G1 X138.286 Y106.628 E-.03132
;WIPE_END
G1 Z.6 F720
G1 X135.672 Y107.873 F10800
G1 Z.2 F720
G1 E.8 F2100
M204 S800
G1 F1200
G1 X135.792 Y107.873 E.00306
G1 X135.792 Y109.496 E.04144
G1 X135.507 Y109.496 E.00728
G1 X135.507 Y107.873 E.04144
M204 S1000
;WIPE_START
G1 F8640
G1 X135.507 Y109.496 E-.37476
G1 X135.792 Y109.496 E-.06581
G1 X135.792 Y107.939 E-.35943
;WIPE_END
G1 Z.6 F720
G1 X135.507 Y112.723 F10800
G1 Z.2 F720
G1 E.8 F2100
M204 S800
G1 F1200
G1 X135.507 Y114.345 E.04142
G1 X135.792 Y114.345 E.00728
G1 X135.792 Y112.723 E.04142
G1 X135.672 Y112.723 E.00306
M204 S1000
;WIPE_START
M73 P0 R75
G1 F8640
G1 X135.792 Y112.723 E-.02771
G1 X135.792 Y114.345 E-.37452
G1 X135.507 Y114.345 E-.06581
G1 X135.507 Y112.907 E-.33196
;WIPE_END
G1 Z.6 F720
G1 X136.929 Y111.854 F10800
G1 Z.2 F720
G1 E.8 F2100
M204 S800
G1 F1200
G1 X136.63 Y111.854 E.00763
G1 X136.63 Y111.477 E.00963
G1 X137.093 Y111.477 E.01182
G1 X137.093 Y111.854 E.00963
G1 X137.621 Y111.854 E.01348
G1 X137.621 Y111.477 E.00963
G1 X137.986 Y111.477 E.00932
M204 S1000
;WIPE_START
G1 F8640
G1 X137.621 Y111.477 E-.08428
G1 X137.621 Y111.854 E-.08705
G1 X137.093 Y111.854 E-.12192
G1 X137.093 Y111.477 E-.08705
G1 X136.63 Y111.477 E-.10691
G1 X136.63 Y111.854 E-.08705
G1 X136.929 Y111.854 E-.06904
;WIPE_END
G1 E-.1567 F2100
G1 Z.6 F720
G1 X137.895 Y112.604 F10800
G1 Z.2 F720
G1 E.8 F2100
M204 S800
G1 F1200
G1 X137.895 Y113.1 E.01266
G1 X138.15 Y113.1 E.00651
G1 X138.15 Y111.477 E.04144
G1 X138.679 Y111.477 E.01351
G1 X138.679 Y111.854 E.00963
G1 X139.207 Y111.854 E.01348
G1 X139.207 Y111.477 E.00963
G1 X139.498 Y111.477 E.00743
G1 X139.498 Y111.854 E.00963
G1 X139.371 Y111.854 E.00324
M204 S1000
;WIPE_START
G1 F8640
G1 X139.498 Y111.854 E-.02932
G1 X139.498 Y111.477 E-.08705
G1 X139.207 Y111.477 E-.06719
G1 X139.207 Y111.854 E-.08705
G1 X138.679 Y111.854 E-.12192
G1 X138.679 Y111.477 E-.08705
G1 X138.15 Y111.477 E-.12215
G1 X138.15 Y112.336 E-.19827
;WIPE_END
G1 Z.6 F720
G1 X140.354 Y112.723 F10800
G1 Z.2 F720
G1 E.8 F2100
M204 S800
G1 F1200
G1 X140.732 Y112.723 E.00965
G1 X140.732 Y114.345 E.04142
G1 X140.354 Y114.345 E.00965
G1 X140.354 Y112.772 E.04016
M204 S1000
;WIPE_START
G1 F8640
G1 X140.354 Y114.345 E-.36321
G1 X140.732 Y114.345 E-.08728
G1 X140.732 Y112.831 E-.34951
;WIPE_END
G1 Z.6 F720
G1 X140.354 Y116.282 F10800
G1 Z.2 F720
G1 E.8 F2100
M204 S800
G1 F1200
G1 X140.732 Y116.282 E.00965
G1 X140.732 Y117.904 E.04142
G1 X140.354 Y117.904 E.00965
G1 X140.354 Y116.331 E.04016
M204 S1000
;WIPE_START
G1 F8640
G1 X140.354 Y117.904 E-.36321
G1 X140.732 Y117.904 E-.08728
G1 X140.732 Y116.39 E-.34951
;WIPE_END
G1 Z.6 F720
G1 X139.371 Y119.15 F10800
G1 Z.2 F720
G1 E.8 F2100
M204 S800
G1 F1200
G1 X139.497 Y119.15 E.00322
G1 X139.497 Y118.773 E.00963
G1 X139.207 Y118.773 E.0074
G1 X139.207 Y119.15 E.00963
G1 X138.679 Y119.15 E.01348
G1 X138.679 Y118.773 E.00963
G1 X138.526 Y118.773 E.00391
G1 X138.406 Y118.652 E.00435
M204 S1000
;WIPE_START
G1 F8640
G1 X138.526 Y118.773 E-.03935
G1 X138.679 Y118.773 E-.03533
G1 X138.679 Y119.15 E-.08705
G1 X139.207 Y119.15 E-.12192
G1 X139.207 Y118.773 E-.08705
G1 X139.497 Y118.773 E-.06696
G1 X139.497 Y119.15 E-.08705
G1 X139.371 Y119.15 E-.02909
;WIPE_END
G1 E-.2462 F2100
G1 Z.6 F720
G1 X138.15 Y117.527 F10800
G1 Z.2 F720
G1 E.8 F2100
M204 S800
G1 F1200
G1 X138.15 Y119.15 E.04144
G1 X137.621 Y119.15 E.01351
G1 X137.621 Y118.773 E.00963
G1 X137.093 Y118.773 E.01348
G1 X137.093 Y119.15 E.00963
G1 X136.629 Y119.15 E.01185
G1 X136.629 Y118.773 E.00963
G1 X136.929 Y118.773 E.00766
M204 S1000
;WIPE_START
G1 F8640
G1 X136.629 Y118.773 E-.06927
G1 X136.629 Y119.15 E-.08705
G1 X137.093 Y119.15 E-.10714
G1 X137.093 Y118.773 E-.08705
G1 X137.621 Y118.773 E-.12192
G1 X137.621 Y119.15 E-.08705
G1 X138.15 Y119.15 E-.12215
G1 X138.15 Y118.637 E-.11837
;WIPE_END
G1 Z.6 F720
G1 X135.507 Y117.904 F10800
G1 Z.2 F720
G1 E.8 F2100
M204 S800
G1 F1200
G1 X135.507 Y116.281 E.04144
G1 X136.036 Y116.281 E.01351
G1 X136.036 Y116.669 E.00991
G1 X136.564 Y116.658 E.01348
G1 X136.564 Y116.281 E.00963
G1 X137.038 Y116.281 E.0121
G1 X137.038 Y116.658 E.00963
G1 X136.729 Y116.658 E.00789
M204 S1000
;WIPE_START
G1 F8640
G1 X137.038 Y116.658 E-.07135
G1 X137.038 Y116.281 E-.08705
G1 X136.564 Y116.281 E-.10945
G1 X136.564 Y116.658 E-.08705
G1 X136.036 Y116.669 E-.12194
G1 X136.036 Y116.281 E-.08959
G1 X135.507 Y116.281 E-.12215
G1 X135.507 Y116.764 E-.11142
;WIPE_END
G1 Z.6 F720
G1 X140.819 Y119.709 F10800
G1 Z.2 F720
G1 E.8 F2100
M204 S800
;TYPE:Perimeter
;WIDTH:0.439336
G1 F1200
G1 X140.905 Y119.605 E.00445
G1 X140.905 Y119.312 E.00966
;WIDTH:0.448054
G1 X141.353 Y119.302 E.0151
G1 X141.753 Y119.114 E.01489
;WIDTH:0.419999
G1 X142.057 Y118.722 E.01555
G1 X142.13 Y118.36 E.01158
G1 X142.13 Y115.826 E.07945
G1 X142.118 Y115.679 E.00462
G1 X141.984 Y115.322 E.01196
G1 X142.086 Y115.085 E.00809
G1 X142.13 Y114.801 E.00901
G1 X142.13 Y112.267 E.07945
G1 X142.096 Y112.014 E.008
G1 X141.945 Y111.706 E.01076
G1 X141.705 Y111.479 E.01036
G1 X141.36 Y111.34 E.01166
G1 X140.896 Y111.324 E.01456
G1 X140.882 Y110.858 E.01462
G1 X140.736 Y110.496 E.01224
G1 X140.423 Y110.204 E.01342
;WIDTH:0.446329
G1 X139.899 Y110.066 E.01818
G1 X139.05 Y110.079 E.02848
;WIDTH:0.419999
G1 X137.084 Y110.079 E.06164
G1 X137.19 Y109.951 E.00521
G1 X137.19 Y108.403 E.04854
G1 X138.956 Y108.403 E.05537
G1 X139 Y108.989 E.01843
G1 X139.289 Y109.425 E.0164
;WIDTH:0.446328
G1 X139.954 Y109.662 E.02368
G1 X140.57 Y109.649 E.02067
;WIDTH:0.419999
G1 X141.344 Y109.636 E.02427
G1 X141.705 Y109.494 E.01216
G1 X141.945 Y109.268 E.01034
G1 X142.096 Y108.959 E.01078
G1 X142.13 Y108.706 E.008
G1 X142.13 Y107.418 E.04038
G1 X142.095 Y107.162 E.0081
G1 X141.941 Y106.851 E.01088
G1 X141.705 Y106.63 E.01014
G1 X141.366 Y106.492 E.01148
G1 X140.896 Y106.475 E.01475
G1 X140.88 Y106.002 E.01484
G1 X140.755 Y105.676 E.01095
G1 X140.64 Y105.612 E.00413
G1 X140.755 Y105.548 E.00413
G1 X140.88 Y105.222 E.01095
G1 X140.896 Y104.749 E.01484
G1 X141.366 Y104.732 E.01475
G1 X141.705 Y104.594 E.01148
G1 X141.941 Y104.372 E.01016
G1 X142.095 Y104.062 E.01085
G1 X142.13 Y103.806 E.0081
G1 X142.13 Y102.518 E.04038
G1 X142.117 Y102.363 E.00488
G1 X141.972 Y101.996 E.01237
G1 X142.082 Y101.738 E.00879
