; generated by PrusaSlicer 2.6.1+win64 on 2023-09-12 at 03:26:04 UTC


;
;
; 

; external perimeters extrusion width = 0.45mm
; perimeters extrusion width = 0.45mm
; infill extrusion width = 0.45mm
; solid infill extrusion width = 0.45mm
; top infill extrusion width = 0.40mm
; support material extrusion width = 0.35mm
; first layer extrusion width = 0.42mm

M73 P0 R45
M73 Q0 S45
M201 X1000 Y1000 Z200 E5000 ; sets maximum accelerations, mm/sec^2
M203 X200 Y200 Z12 E120 ; sets maximum feedrates, mm / sec
M204 S1250 T1250 ; sets acceleration (S) and retract acceleration (R), mm/sec^2
M205 X8.00 Y8.00 Z0.40 E4.50 ; sets the jerk limits, mm/sec
M205 S0 T0 ; sets the minimum extruding and travel feed rate, mm/sec
;TYPE:Custom
M862.3 P "MK3S" ; printer model check
M862.1 P0.4 ; nozzle diameter check
M115 U3.13.0 ; tell printer latest fw version
G90 ; use absolute coordinates
M83 ; extruder relative mode
M104 S215 ; set extruder temp
M140 S60 ; set bed temp
M190 S60 ; wait for bed temp
M109 S215 ; wait for extruder temp
G28 W ; home all without mesh bed level
G80 ; mesh bed leveling

G1 Z0.2 F720
G1 Y-3 F1000 ; go outside print area
G92 E0
G1 X60 E9 F1000 ; intro line
G1 X100 E12.5 F1000 ; intro line

G92 E0
M221 S95

; Don't change E values below. Excessive value can damage the printer.
M907 E430 ; set extruder motor current
G21 ; set units to millimeters
G90 ; use absolute coordinates
M83 ; use relative distances for extrusion
M900 K0.05 ; Filament gcode LA 1.5
M900 K30 ; Filament gcode LA 1.0
M107
;LAYER_CHANGE
;Z:0.2
;HEIGHT:0.2
;BEFORE_LAYER_CHANGE
G92 E0.0
;0.2


G1 E-.8 F2100
G1 Z.4 F720
;AFTER_LAYER_CHANGE
;0.2
G1 X113.394 Y87.694 F10800
G1 Z.2 F720
G1 E.8 F2100
M204 S800
;TYPE:Skirt/Brim
;WIDTH:0.42
G1 F1200
G1 X114.122 Y87.035 E.03079
G1 X115.095 Y86.514 E.03461
G1 X116.048 Y86.276 E.0308
G1 X132.726 Y86.237 E.52293
G1 X133.736 Y86.252 E.03167
G1 X134.507 Y86.386 E.02454
G1 X135.288 Y86.681 E.02618
G1 X135.997 Y87.123 E.0262
G1 X136.606 Y87.694 E.02618
G1 X137.092 Y88.374 E.02621
G1 X137.435 Y89.135 E.02617
G1 X137.624 Y89.948 E.02617
G1 X137.663 Y119.502 E.92665
G1 X137.55 Y120.463 E.03034
G1 X137.219 Y121.388 E.0308
G1 X136.606 Y122.306 E.03461
G1 X135.878 Y122.965 E.03079
G1 X134.905 Y123.486 E.03461
G1 X133.736 Y123.748 E.03756
G1 X116.506 Y123.761 E.54023
G1 X115.637 Y123.65 E.02747
G1 X114.712 Y123.319 E.0308
G1 X113.794 Y122.706 E.03461
G1 X112.985 Y121.753 E.0392
G1 X112.565 Y120.865 E.0308
G1 X112.345 Y119.725 E.0364
G1 X112.337 Y90.498 E.91639
G1 X112.45 Y89.537 E.03034
G1 X112.781 Y88.612 E.0308
G1 X113.361 Y87.744 E.03273
M204 S1000
G1 X113.671 Y87.951 F10800
M204 S800
G1 F1200
G1 X114.347 Y87.338 E.02861
G1 X115.222 Y86.869 E.03113
G1 X116.103 Y86.649 E.02847
G1 X132.726 Y86.614 E.5212
G1 X133.71 Y86.629 E.03086
G1 X134.415 Y86.752 E.02244
G1 X135.127 Y87.022 E.02388
G1 X135.772 Y87.426 E.02386
G1 X136.326 Y87.947 E.02384
G1 X136.768 Y88.567 E.02387
G1 X137.08 Y89.262 E.02389
G1 X137.251 Y90.003 E.02384
G1 X137.286 Y119.502 E.92492
G1 X137.184 Y120.372 E.02747
G1 X136.878 Y121.227 E.02847
G1 X136.326 Y122.053 E.03115
G1 X135.653 Y122.662 E.02846
G1 X134.778 Y123.131 E.03113
G1 X133.71 Y123.371 E.03432
G1 X116.519 Y123.384 E.53901
G1 X115.728 Y123.284 E.025
G1 X114.873 Y122.978 E.02847
G1 X114.048 Y122.426 E.03112
G1 X113.308 Y121.559 E.03574
G1 X112.92 Y120.738 E.02847
G1 X112.717 Y119.618 E.03569
G1 X112.714 Y90.498 E.91304
G1 X112.816 Y89.628 E.02747
G1 X113.122 Y88.773 E.02847
G1 X113.638 Y88.001 E.02911
M204 S1000
; printing object Bottom.stl id:0 copy 0
;WIPE_START
G1 F8640
G1 X114.347 Y87.338 E-.22414
G1 X115.222 Y86.869 E-.22923
G1 X116.103 Y86.649 E-.20967
G1 X116.696 Y86.648 E-.13696
;WIPE_END
G1 Z.6 F720
G1 X116.623 Y119.51 F10800
G1 Z.2 F720
G1 E.8 F2100
M204 S800
;TYPE:Perimeter
;WIDTH:0.419999
G1 F1200
G1 X116.582 Y119.425 E.00296
G1 X116.588 Y90.533 E.90589
G1 X116.65 Y90.482 E.00252
G1 X133.372 Y90.494 E.52431
G1 X133.418 Y90.555 E.0024
G1 X133.412 Y119.467 E.90651
G1 X133.35 Y119.518 E.00252
G1 X116.683 Y119.518 E.52258
M204 S1000
G1 X116.417 Y119.814 F10800
M204 S800
G1 F1200
G1 X116.278 Y119.715 E.00535
G1 X116.205 Y119.453 E.00853
G1 X116.205 Y90.583 E.9052
G1 X116.227 Y90.402 E.00572
G1 X116.385 Y90.178 E.00859
G1 X116.618 Y90.105 E.00766
G1 X132.691 Y90.104 E.50396
G1 X133.339 Y90.109 E.02032
G1 X133.591 Y90.166 E.0081
G1 X133.722 Y90.285 E.00555
G1 X133.795 Y90.555 E.00877
G1 X133.795 Y119.417 E.90495
G1 X133.773 Y119.598 E.00572
M73 P1 R45
M73 Q1 S45
G1 X133.615 Y119.822 E.00859
G1 X133.382 Y119.895 E.00766
G1 X116.683 Y119.895 E.52358
G1 X116.502 Y119.873 E.00572
G1 X116.466 Y119.848 E.00137
M204 S1000
G1 X116.178 Y120.128 F10800
M204 S800
;TYPE:External perimeter
G1 F1200
G1 X116.11 Y120.091 E.00243
G1 X115.917 Y119.835 E.01005
G1 X115.828 Y119.482 E.01141
G1 X115.828 Y90.583 E.90611
G1 X115.864 Y90.281 E.00954
G1 X116.009 Y90.01 E.00964
G1 X116.265 Y89.817 E.01005
G1 X116.586 Y89.728 E.01044
G1 X132.692 Y89.727 E.50499
G1 X133.342 Y89.732 E.02038
G1 X133.771 Y89.826 E.01377
G1 X133.967 Y89.994 E.00809
G1 X134.136 Y90.279 E.01039
G1 X134.172 Y90.555 E.00873
G1 X134.172 Y119.417 E.90495
G1 X134.136 Y119.719 E.00954
G1 X133.991 Y119.99 E.00964
G1 X133.735 Y120.183 E.01005
G1 X133.414 Y120.272 E.01044
G1 X116.683 Y120.272 E.52459
G1 X116.381 Y120.236 E.00954
G1 X116.231 Y120.156 E.00533
M204 S1000
G1 X116.17 Y120.05 F10800
;WIPE_START
G1 F8640
G1 X116.11 Y120.091 E-.03172
G1 X115.917 Y119.835 E-.07403
G1 X115.828 Y119.482 E-.08406
G1 X115.828 Y116.839 E-.61019
;WIPE_END
G1 Z.6 F720
G1 X133.248 Y91.426 F10800
G1 Z.2 F720
G1 E.8 F2100
M204 S800
;TYPE:Solid infill
;WIDTH:0.423958
G1 F1200
G1 X132.642 Y90.82 E.02715
G1 X132.103 Y90.82 E.01708
G1 X133.078 Y91.795 E.04369
G1 X133.078 Y92.334 E.01708
G1 X131.565 Y90.82 E.06782
G1 X131.026 Y90.82 E.01708
G1 X133.078 Y92.873 E.09197
G1 X133.078 Y93.412 E.01708
G1 X130.487 Y90.82 E.11612
G1 X129.948 Y90.821 E.01708
G1 X133.078 Y93.951 E.14025
G1 X133.078 Y94.49 E.01708
G1 X129.409 Y90.821 E.1644
G1 X128.87 Y90.821 E.01708
G1 X133.078 Y95.029 E.18855
G1 X133.078 Y95.567 E.01705
G1 X128.332 Y90.821 E.21265
G1 X127.793 Y90.821 E.01708
G1 X133.078 Y96.106 E.23681
G1 X133.078 Y96.645 E.01708
G1 X127.254 Y90.821 E.26096
G1 X126.715 Y90.821 E.01708
G1 X133.078 Y97.184 E.28511
G1 X133.078 Y97.723 E.01708
G1 X126.176 Y90.821 E.30926
G1 X125.638 Y90.821 E.01705
G1 X133.078 Y98.262 E.33339
G1 X133.078 Y98.801 E.01708
G1 X125.099 Y90.821 E.35754
G1 X124.56 Y90.821 E.01708
G1 X133.078 Y99.34 E.38169
G1 X133.078 Y99.878 E.01705
G1 X124.021 Y90.821 E.40582
G1 X123.482 Y90.821 E.01708
G1 X133.078 Y100.417 E.42997
G1 X133.078 Y100.956 E.01708
G1 X122.943 Y90.821 E.45412
G1 X122.405 Y90.821 E.01705
G1 X133.078 Y101.495 E.47825
G1 X133.078 Y102.034 E.01708
G1 X121.866 Y90.821 E.5024
G1 X121.327 Y90.821 E.01708
M73 P1 R44
G1 X133.079 Y102.573 E.52657
G1 X133.079 Y103.112 E.01708
G1 X120.788 Y90.821 E.55072
G1 X120.249 Y90.821 E.01708
G1 X133.079 Y103.651 E.57488
G1 X133.079 Y104.19 E.01708
G1 X119.711 Y90.821 E.599
G1 X119.172 Y90.822 E.01708
G1 X133.079 Y104.728 E.62311
G1 X133.079 Y105.267 E.01708
G1 X118.633 Y90.822 E.64726
G1 X118.094 Y90.822 E.01708
G1 X133.079 Y105.806 E.67141
G1 X133.079 Y106.345 E.01708
G1 X117.555 Y90.822 E.69556
G1 X117.016 Y90.822 E.01708
G1 X133.079 Y106.884 E.71971
G1 X133.079 Y107.423 E.01708
G1 X116.921 Y91.265 E.72399
G1 X116.921 Y91.804 E.01708
G1 X133.079 Y107.962 E.72399
G1 X133.079 Y108.501 E.01708
M73 P2 R44
M73 Q2 S45
G1 X116.921 Y92.343 E.72399
G1 X116.921 Y92.882 E.01708
M73 Q2 S44
G1 X133.079 Y109.039 E.72397
G1 X133.079 Y109.578 E.01708
G1 X116.921 Y93.421 E.72397
G1 X116.921 Y93.96 E.01708
G1 X133.079 Y110.117 E.72397
G1 X133.079 Y110.656 E.01708
G1 X116.921 Y94.499 E.72397
G1 X116.921 Y95.037 E.01705
G1 X133.079 Y111.195 E.72399
G1 X133.079 Y111.734 E.01708
G1 X116.921 Y95.576 E.72399
G1 X116.921 Y96.115 E.01708
G1 X133.079 Y112.273 E.72399
G1 X133.079 Y112.812 E.01708
G1 X116.921 Y96.654 E.72399
G1 X116.921 Y97.193 E.01708
G1 X133.079 Y113.35 E.72397
G1 X133.079 Y113.889 E.01708
G1 X116.921 Y97.732 E.72397
G1 X116.921 Y98.271 E.01708
G1 X133.079 Y114.428 E.72397
G1 X133.079 Y114.967 E.01708
G1 X116.921 Y98.809 E.72399
G1 X116.921 Y99.348 E.01708
G1 X133.079 Y115.506 E.72399
G1 X133.079 Y116.045 E.01708
G1 X116.921 Y99.887 E.72399
G1 X116.921 Y100.426 E.01708
G1 X133.079 Y116.584 E.72399
G1 X133.079 Y117.123 E.01708
G1 X116.921 Y100.965 E.72399
G1 X116.921 Y101.504 E.01708
G1 X133.079 Y117.662 E.72399
G1 X133.079 Y118.2 E.01705
G1 X116.921 Y102.043 E.72397
G1 X116.921 Y102.582 E.01708
G1 X133.079 Y118.739 E.72397
G1 X133.079 Y119.178 E.01391
G1 X132.979 Y119.178 E.00317
G1 X116.921 Y103.12 E.71951
G1 X116.921 Y103.659 E.01708
G1 X132.44 Y119.178 E.69536
G1 X131.901 Y119.178 E.01708
G1 X116.921 Y104.198 E.67121
G1 X116.921 Y104.737 E.01708
M73 P3 R44
M73 Q3 S44
G1 X131.362 Y119.178 E.64706
G1 X130.824 Y119.178 E.01705
G1 X116.921 Y105.276 E.62293
G1 X116.921 Y105.815 E.01708
G1 X130.285 Y119.178 E.59878
G1 X129.746 Y119.178 E.01708
G1 X116.921 Y106.354 E.57463
G1 X116.921 Y106.893 E.01708
G1 X129.207 Y119.178 E.55048
G1 X128.668 Y119.178 E.01708
G1 X116.921 Y107.431 E.52635
G1 X116.921 Y107.97 E.01708
G1 X128.129 Y119.178 E.5022
G1 X127.59 Y119.178 E.01708
G1 X116.921 Y108.509 E.47805
G1 X116.921 Y109.048 E.01708
G1 X127.052 Y119.178 E.45392
G1 X126.513 Y119.179 E.01708
G1 X116.921 Y109.587 E.42979
G1 X116.921 Y110.126 E.01708
G1 X125.974 Y119.179 E.40564
G1 X125.435 Y119.179 E.01708
G1 X116.921 Y110.665 E.38149
G1 X116.921 Y111.203 E.01705
G1 X124.896 Y119.179 E.35736
G1 X124.357 Y119.179 E.01708
G1 X116.921 Y111.742 E.33321
G1 X116.921 Y112.281 E.01708
G1 X123.819 Y119.179 E.30908
G1 X123.28 Y119.179 E.01708
G1 X116.921 Y112.82 E.28493
G1 X116.921 Y113.359 E.01708
G1 X122.741 Y119.179 E.26078
G1 X122.202 Y119.179 E.01708
G1 X116.921 Y113.898 E.23663
G1 X116.921 Y114.437 E.01708
G1 X121.663 Y119.179 E.21248
G1 X121.124 Y119.179 E.01708
G1 X116.921 Y114.976 E.18832
G1 X116.921 Y115.514 E.01705
G1 X120.585 Y119.179 E.1642
G1 X120.047 Y119.179 E.01705
G1 X116.921 Y116.053 E.14007
G1 X116.921 Y116.592 E.01708
G1 X119.508 Y119.179 E.11592
G1 X118.969 Y119.179 E.01708
G1 X116.921 Y117.131 E.09177
G1 X116.921 Y117.67 E.01708
G1 X118.43 Y119.179 E.06761
G1 X117.891 Y119.179 E.01708
G1 X116.921 Y118.209 E.04346
G1 X116.921 Y118.748 E.01708
G1 X117.522 Y119.349 E.02693
M204 S1000
; stop printing object Bottom.stl id:0 copy 0
M106 S84.15
;LAYER_CHANGE
;Z:0.3
;HEIGHT:0.1
;BEFORE_LAYER_CHANGE
G92 E0.0
;0.3


;WIPE_START
G1 F8640
G1 X116.921 Y118.748 E-.19625
G1 X116.921 Y118.209 E-.12446
G1 X117.891 Y119.179 E-.31675
G1 X118.43 Y119.179 E-.12446
G1 X118.313 Y119.062 E-.03808
;WIPE_END
G1 Z.6 F720
;AFTER_LAYER_CHANGE
;0.3
G1 X118.317 Y123.76 F10800
G1 Z.3 F720
G1 E.8 F2100
;TYPE:Skirt/Brim
;WIDTH:0.42
G1 F3000
G1 X116.506 Y123.761 E.03001
G1 X115.637 Y123.65 E.01452
G1 X114.712 Y123.319 E.01628
G1 X113.794 Y122.706 E.01829
G1 X112.985 Y121.753 E.02071
G1 X112.565 Y120.865 E.01628
G1 X112.345 Y119.725 E.01924
G1 X112.337 Y90.498 E.48427
G1 X112.45 Y89.537 E.01603
G1 X112.781 Y88.612 E.01628
G1 X113.394 Y87.694 E.01829
G1 X114.122 Y87.035 E.01627
G1 X115.095 Y86.514 E.01829
G1 X116.048 Y86.276 E.01628
G1 X132.726 Y86.237 E.27634
G1 X133.736 Y86.252 E.01674
G1 X134.507 Y86.386 E.01297
G1 X135.288 Y86.681 E.01383
G1 X135.997 Y87.123 E.01384
G1 X136.606 Y87.694 E.01383
G1 X137.092 Y88.374 E.01385
G1 X137.435 Y89.135 E.01383
G1 X137.624 Y89.948 E.01383
G1 X137.663 Y119.502 E.48969
G1 X137.55 Y120.463 E.01603
G1 X137.219 Y121.388 E.01628
G1 X136.606 Y122.306 E.01829
G1 X135.878 Y122.965 E.01627
G1 X134.905 Y123.486 E.01829
G1 X133.736 Y123.748 E.01985
G1 X118.377 Y123.76 E.25449
G1 X118.377 Y123.383 F10800
G1 F3000
G1 X116.519 Y123.384 E.03079
G1 X115.728 Y123.284 E.01321
G1 X114.873 Y122.978 E.01505
G1 X114.048 Y122.426 E.01645
G1 X113.308 Y121.559 E.01889
G1 X112.92 Y120.738 E.01505
G1 X112.717 Y119.618 E.01886
G1 X112.714 Y90.498 E.4825
G1 X112.816 Y89.628 E.01451
G1 X113.122 Y88.773 E.01505
G1 X113.674 Y87.948 E.01645
G1 X114.347 Y87.338 E.01505
G1 X115.222 Y86.869 E.01645
G1 X116.103 Y86.649 E.01505
G1 X132.726 Y86.614 E.27543
G1 X133.71 Y86.629 E.01631
G1 X134.415 Y86.752 E.01186
G1 X135.127 Y87.022 E.01262
G1 X135.772 Y87.426 E.01261
G1 X136.326 Y87.947 E.0126
G1 X136.768 Y88.567 E.01262
G1 X137.08 Y89.262 E.01262
G1 X137.251 Y90.003 E.0126
G1 X137.286 Y119.502 E.48878
G1 X137.184 Y120.372 E.01451
G1 X136.878 Y121.227 E.01505
G1 X136.326 Y122.053 E.01646
G1 X135.653 Y122.662 E.01504
G1 X134.778 Y123.131 E.01645
G1 X133.71 Y123.371 E.01814
G1 X118.437 Y123.383 E.25306
; printing object Bottom.stl id:0 copy 0
;WIPE_START
G1 F8640
G1 X116.519 Y123.384 E-.44287
G1 X115.728 Y123.284 E-.1841
G1 X115.022 Y123.031 E-.17303
;WIPE_END
G1 Z.7 F720
G1 X116.487 Y119.774 F10800
G1 Z.3 F720
G1 E.8 F2100
M204 S600
;TYPE:Perimeter
;WIDTH:0.449999
G1 F2700
G1 X116.356 Y119.706 E.00263
G1 X116.271 Y119.417 E.00537
G1 X116.271 Y90.618 E.5131
G1 X116.318 Y90.369 E.00451
M73 P3 R43
G1 X116.467 Y90.211 E.00387
G1 X116.68 Y90.171 E.00386
G1 X133.319 Y90.171 E.29645
G1 X133.493 Y90.194 E.00313
G1 X133.667 Y90.322 E.00385
G1 X133.729 Y90.578 E.00469
G1 X133.729 Y119.382 E.51319
G1 X133.698 Y119.614 E.00417
G1 X133.575 Y119.761 E.00341
G1 X133.32 Y119.829 E.0047
G1 X116.718 Y119.829 E.29579
G1 X116.541 Y119.801 E.00319
M204 S1000
G1 X116.312 Y120.178 F10800
M204 S600
G1 F2700
G1 X116.059 Y120.019 E.00532
G1 X115.931 Y119.815 E.00429
G1 X115.842 Y119.45 E.00669
G1 X115.842 Y90.618 E.51369
G1 X115.867 Y90.392 E.00405
G1 X115.985 Y90.07 E.00611
G1 X116.26 Y89.831 E.00649
G1 X116.647 Y89.742 E.00707
G1 X133.319 Y89.742 E.29704
G1 X133.688 Y89.806 E.00667
G1 X133.931 Y89.969 E.00521
G1 X134.094 Y90.212 E.00521
G1 X134.158 Y90.578 E.00662
G1 X134.158 Y119.382 E.51319
G1 X134.114 Y119.731 E.00627
G1 X133.99 Y119.964 E.0047
G1 X133.716 Y120.169 E.0061
G1 X133.353 Y120.258 E.00666
G1 X116.718 Y120.258 E.29638
G1 X116.363 Y120.21 E.00638
M204 S1000
G1 X116.102 Y120.561 F10800
M204 S600
;TYPE:External perimeter
G1 F1200

G1 X116.052 Y120.546 E.00093
G1 F1198.033
G1 X116.048 Y120.545 E.00007
G1 X116.045 Y120.543 E.00006
G1 F1200
G1 X115.691 Y120.246 E.00823
G1 X115.47 Y119.842 E.0082
G1 X115.418 Y119.508 E.00602
G1 F1189.887
G1 X115.414 Y119.483 E.00045
G1 X115.414 Y118.804 E.0121
G1 F1192.176
G1 X115.414 Y91.297 E.49008
G1 F1190.23
G1 X115.414 Y90.618 E.0121
G1 X115.417 Y90.581 E.00066
G1 F1200
G1 X115.443 Y90.327 E.00455
G1 F1227.13
G1 X115.542 Y90.004 E.00602
G1 F1200
G1 X115.758 Y89.672 E.00706
G1 F1198.029
G1 X115.761 Y89.668 E.00009
G1 X115.763 Y89.667 E.00004
G1 F1200
G1 X116.152 Y89.412 E.00829
G1 X116.595 Y89.318 E.00807
M73 P4 R43
G1 F1190.194
G1 X116.613 Y89.314 E.00033
G1 X117.292 Y89.314 E.0121
G1 F1192.259
G1 X132.64 Y89.314 E.27345
G1 F1190.091
M73 Q4 S44
G1 X133.319 Y89.314 E.0121
G1 X133.629 Y89.34 E.00554
G1 F1196.855
G1 X134.057 Y89.517 E.00825
G1 F1197.326
G1 X134.383 Y89.843 E.00821
G1 X134.387 Y89.851 E.00016
G1 F1200
G1 X134.526 Y90.159 E.00602
G1 X134.582 Y90.553 E.00709
G1 F1190.409
G1 X134.586 Y90.578 E.00045
G1 X134.586 Y91.256 E.01208
G1 F1192.52
G1 X134.586 Y118.703 E.48901
G1 F1190.224
G1 X134.586 Y119.382 E.0121
G1 X134.53 Y119.847 E.00834
G1 F1197.897
G1 X134.526 Y119.854 E.00014
G1 F1200
G1 X134.387 Y120.141 E.00568
G1 X134.056 Y120.482 E.00847
G1 X133.742 Y120.63 E.00618
G1 X133.412 Y120.682 E.00595
G1 F1190.23
G1 X133.387 Y120.686 E.00045
G1 X132.708 Y120.686 E.0121
G1 F1189.848
G1 X117.397 Y120.686 E.27279
G1 X116.718 Y120.686 E.0121
G1 X116.681 Y120.682 E.00066
G1 F1200
G1 X116.427 Y120.657 E.00455
G1 F1227.13
G1 X116.16 Y120.578 E.00496
G1 F1244.438

M204 S1000
G1 X116.087 Y120.506 F10800
;WIPE_START
G1 F8640
G1 X116.048 Y120.545 E-.02696
G1 X115.691 Y120.246 E-.10752
G1 X115.47 Y119.842 E-.10633
G1 X115.414 Y119.483 E-.0839
G1 X115.414 Y117.425 E-.47529
;WIPE_END
G1 Z.7 F720
G1 X116.794 Y90.631 F10800
G1 Z.3 F720
G1 E.8 F2100
;TYPE:Solid infill
;WIDTH:0.588448
G1 F4800
G1 X116.744 Y90.581 E.00167
